; generated by Slic3r 1.2.9 on 2016-11-10 at 00:39:40

; external perimeters extrusion width = 0.40mm
; perimeters extrusion width = 0.67mm
; infill extrusion width = 0.67mm
; solid infill extrusion width = 0.67mm
; top infill extrusion width = 0.67mm

M107
M190 S50 ; set bed temperature
G28 X0 Y0 Z0 ; home all axes
G1 Z5 F5000 ; lift nozzle
M109 S200 ; set the extruder temp and wait
G28 X0 Y0 Z0 ; Home Z again in case there was filament on nozzle
G29 ; probe the bed
G21 ; set units to millimeters
G90 ; use absolute coordinates
M82 ; use absolute distances for extrusion
G92 E0
G1 Z0.300 F10800.000
G1 E-2.00000 F1800.00000
G92 E0
G1 Z0.800 F10800.000
G1 X94.526 Y119.002 F10800.000
G1 Z0.300 F10800.000
G1 E2.05000 F1800.00000
G1 X95.399 Y118.436 E2.12305 F5040.000
G1 X97.359 Y117.978 E2.26421
G1 X99.330 Y117.572 E2.40536
G1 X101.311 Y117.217 E2.54652
G1 X103.300 Y116.913 E2.68768
G1 X105.257 Y116.666 E2.82605
G1 X107.260 Y116.465 E2.96720
G1 X109.306 Y116.314 E3.11116
G1 X111.276 Y116.219 E3.24952
G1 X112.654 Y116.183 E3.34619
G1 X115.050 Y116.179 E3.51425
G1 X115.895 Y116.194 E3.57356
G1 X118.733 Y116.316 E3.77282
G1 X120.740 Y116.465 E3.91398
G1 X122.742 Y116.666 E4.05514
G1 X124.699 Y116.913 E4.19350
G1 X126.689 Y117.217 E4.33466
G1 X128.670 Y117.572 E4.47582
G1 X130.640 Y117.978 E4.61698
G1 X132.600 Y118.436 E4.75814
G1 X133.505 Y119.044 E4.83461
G1 X133.782 Y120.048 E4.90765
G1 X133.706 Y121.035 E4.97707
G1 X133.566 Y122.104 E5.05275
G1 X133.391 Y123.060 E5.12088
G1 X133.159 Y124.043 E5.19171
G1 X132.863 Y125.060 E5.26603
G1 X132.524 Y126.028 E5.33800
G1 X132.075 Y127.114 E5.42045
G1 X131.639 Y128.025 E5.49128
G1 X131.167 Y128.896 E5.56077
G1 X130.627 Y129.780 E5.63345
G1 X130.041 Y130.635 E5.70614
G1 X129.411 Y131.458 E5.77884
G1 X128.739 Y132.247 E5.85153
G1 X128.027 Y133.000 E5.92422
G1 X127.314 Y133.679 E5.99330
G1 X126.443 Y134.425 E6.07372
G1 X125.668 Y135.021 E6.14230
G1 X124.763 Y135.642 E6.21933
G1 X123.932 Y136.152 E6.28768
G1 X123.022 Y136.648 E6.36037
G1 X122.087 Y137.095 E6.43307
G1 X121.131 Y137.493 E6.50576
G1 X120.154 Y137.841 E6.57845
G1 X119.161 Y138.137 E6.65115
G1 X118.154 Y138.381 E6.72384
G1 X117.169 Y138.565 E6.79416
G1 X116.032 Y138.717 E6.87458
G1 X114.997 Y138.796 E6.94739
G1 X113.960 Y138.821 E7.02014
G1 X112.925 Y138.792 E7.09283
G1 X111.891 Y138.709 E7.16553
G1 X110.864 Y138.571 E7.23821
G1 X109.846 Y138.381 E7.31091
G1 X108.839 Y138.137 E7.38360
G1 X107.845 Y137.841 E7.45629
G1 X106.869 Y137.493 E7.52899
G1 X105.973 Y137.122 E7.59699
G1 X104.978 Y136.648 E7.67437
G1 X104.123 Y136.183 E7.74260
G1 X103.146 Y135.583 E7.82303
G1 X102.332 Y135.021 E7.89244
G1 X101.511 Y134.388 E7.96513
G1 X100.724 Y133.714 E8.03782
G1 X99.973 Y133.000 E8.11052
G1 X99.261 Y132.247 E8.18321
G1 X98.589 Y131.458 E8.25590
G1 X97.959 Y130.635 E8.32860
G1 X97.373 Y129.780 E8.40129
G1 X96.833 Y128.896 E8.47398
G1 X96.324 Y127.954 E8.54911
G1 X95.894 Y127.045 E8.61965
G1 X95.492 Y126.074 E8.69335
G1 X95.137 Y125.060 E8.76872
G1 X94.841 Y124.043 E8.84304
G1 X94.609 Y123.060 E8.91387
G1 X94.421 Y122.026 E8.98754
G1 X94.293 Y121.028 E9.05815
G1 X94.218 Y120.048 E9.12709
G1 X94.509 Y119.060 E9.19936
G1 E7.19936 F1800.00000
G92 E0
G1 Z0.800 F10800.000
G1 X114.564 Y124.760 F10800.000
G1 Z0.300 F10800.000
G1 E2.05000 F1800.00000
G1 X116.261 Y123.636 E2.19273 F5040.000
G1 X116.655 Y123.285 E2.22977
G1 X116.998 Y122.875 E2.26726
G1 X117.279 Y122.421 E2.30475
G1 X117.495 Y121.924 E2.34274
G1 X117.635 Y121.393 E2.38127
G1 X117.697 Y120.876 E2.41778
G1 X117.682 Y120.341 E2.45529
G1 X117.591 Y119.815 E2.49277
G1 X117.485 Y119.491 E2.51668
G1 X117.485 Y118.630 E2.57709
G1 X118.569 Y118.682 E2.65320
G1 X120.515 Y118.825 E2.79004
G1 X122.456 Y119.020 E2.92688
G1 X124.391 Y119.264 E3.06373
G1 X126.320 Y119.559 E3.20057
G1 X128.240 Y119.904 E3.33741
G1 X130.150 Y120.298 E3.47425
G1 X131.363 Y120.582 E3.56159
G1 X131.229 Y121.701 E3.64069
G1 X131.063 Y122.610 E3.70554
G1 X130.857 Y123.472 E3.76768
G1 X130.594 Y124.372 E3.83341
G1 X130.287 Y125.242 E3.89818
G1 X129.924 Y126.116 E3.96451
G1 X129.544 Y126.916 E4.02668
G1 X129.108 Y127.719 E4.09075
G1 X128.632 Y128.499 E4.15485
G1 X128.131 Y129.229 E4.21699
G1 X127.559 Y129.977 E4.28304
G1 X126.966 Y130.672 E4.34710
G1 X126.338 Y131.335 E4.41118
G1 X125.675 Y131.965 E4.47527
G1 X124.981 Y132.558 E4.53936
G1 X124.256 Y133.115 E4.60345
G1 X123.504 Y133.633 E4.66753
G1 X122.725 Y134.110 E4.73163
G1 X121.946 Y134.534 E4.79378
G1 X121.097 Y134.940 E4.85983
G1 X120.254 Y135.290 E4.92388
G1 X119.392 Y135.595 E4.98797
G1 X118.516 Y135.855 E5.05206
G1 X117.628 Y136.068 E5.11614
G1 X116.730 Y136.235 E5.18023
G1 X115.824 Y136.354 E5.24432
G1 X114.913 Y136.426 E5.30841
G1 X114.000 Y136.450 E5.37250
G1 X113.087 Y136.426 E5.43658
G1 X112.176 Y136.354 E5.50067
G1 X111.270 Y136.235 E5.56476
G1 X110.372 Y136.069 E5.62881
G1 X109.457 Y135.847 E5.69486
G1 X108.607 Y135.595 E5.75701
G1 X107.746 Y135.290 E5.82111
G1 X106.902 Y134.940 E5.88519
G1 X106.078 Y134.547 E5.94928
G1 X105.275 Y134.110 E6.01337
G1 X104.496 Y133.633 E6.07746
G1 X103.743 Y133.115 E6.14154
G1 X103.019 Y132.558 E6.20563
G1 X102.324 Y131.965 E6.26972
G1 X101.662 Y131.335 E6.33381
G1 X101.034 Y130.672 E6.39789
G1 X100.441 Y129.977 E6.46198
G1 X99.885 Y129.252 E6.52607
G1 X99.368 Y128.498 E6.59016
G1 X98.891 Y127.719 E6.65424
G1 X98.456 Y126.916 E6.71831
G1 X98.076 Y126.116 E6.78048
G1 X97.713 Y125.242 E6.84681
G1 X97.406 Y124.372 E6.91158
G1 X97.142 Y123.472 E6.97731
G1 X96.937 Y122.610 E7.03945
G1 X96.770 Y121.700 E7.10437
G1 X96.637 Y120.582 E7.18340
G1 X97.849 Y120.298 E7.27074
G1 X99.760 Y119.904 E7.40758
G1 X101.680 Y119.559 E7.54442
G1 X103.608 Y119.264 E7.68126
G1 X105.544 Y119.020 E7.81811
G1 X107.485 Y118.825 E7.95495
G1 X109.430 Y118.682 E8.09179
G1 X110.514 Y118.630 E8.16790
G1 X110.514 Y119.491 E8.22831
G1 X110.408 Y119.815 E8.25222
G1 X110.317 Y120.341 E8.28970
G1 X110.303 Y120.876 E8.32720
G1 X110.365 Y121.393 E8.36372
G1 X110.505 Y121.924 E8.40225
G1 X110.720 Y122.421 E8.44024
G1 X111.001 Y122.875 E8.47773
G1 X111.345 Y123.285 E8.51521
G1 X111.739 Y123.636 E8.55226
G1 X113.435 Y124.760 E8.69499
G1 X113.435 Y122.877 E8.82705
G1 X114.000 Y122.949 E8.86697
G1 X114.564 Y122.877 E8.90688
G1 X114.564 Y124.700 E9.03474
G1 X115.100 Y123.763 F10800.000
G1 X115.933 Y123.211 E9.10482 F5040.000
G1 X116.269 Y122.911 E9.13646
G1 X116.563 Y122.561 E9.16850
G1 X116.804 Y122.172 E9.20055
G1 X116.987 Y121.748 E9.23297
G1 X117.107 Y121.292 E9.26603
G1 X117.160 Y120.851 E9.29720
G1 X117.148 Y120.394 E9.32925
G1 X117.070 Y119.944 E9.36129
G1 X116.950 Y119.576 E9.38846
G1 X116.950 Y118.068 E9.49426
G1 X118.602 Y118.147 E9.61028
G1 X120.561 Y118.292 E9.74809
G1 X122.516 Y118.487 E9.88591
G1 X124.465 Y118.734 E10.02373
G1 X126.408 Y119.031 E10.16155
G1 X128.341 Y119.378 E10.29936
G1 X130.266 Y119.775 E10.43718
G1 X131.932 Y120.164 E10.55723
G1 X131.880 Y120.839 E10.60465
G1 X131.759 Y121.784 E10.67149
G1 X131.587 Y122.721 E10.73833
G1 X131.375 Y123.610 E10.80242
G1 X131.104 Y124.536 E10.87013
G1 X130.787 Y125.434 E10.93694
G1 X130.413 Y126.333 E11.00523
G1 X130.021 Y127.159 E11.06934
G1 X129.573 Y127.987 E11.13539
G1 X129.081 Y128.790 E11.20145
G1 X128.565 Y129.544 E11.26554
G1 X127.976 Y130.314 E11.33357
G1 X127.365 Y131.030 E11.39961
G1 X126.717 Y131.714 E11.46567
G1 X126.034 Y132.363 E11.53172
G1 X125.318 Y132.974 E11.59778
G1 X124.571 Y133.548 E11.66384
G1 X123.796 Y134.082 E11.72989
G1 X122.993 Y134.574 E11.79595
G1 X122.190 Y135.011 E11.86005
G1 X121.315 Y135.430 E11.92808
G1 X120.446 Y135.790 E11.99412
G1 X119.558 Y136.105 E12.06018
G1 X118.655 Y136.372 E12.12623
G1 X117.740 Y136.592 E12.19229
G1 X116.814 Y136.764 E12.25835
G1 X115.880 Y136.887 E12.32440
G1 X114.941 Y136.961 E12.39046
G1 X114.000 Y136.986 E12.45652
G1 X113.058 Y136.961 E12.52258
G1 X112.120 Y136.887 E12.58863
G1 X111.186 Y136.764 E12.65469
G1 X110.260 Y136.593 E12.72073
G1 X109.318 Y136.365 E12.78876
G1 X108.442 Y136.105 E12.85286
G1 X107.554 Y135.790 E12.91891
G1 X106.684 Y135.430 E12.98497
G1 X105.834 Y135.024 E13.05103
G1 X105.007 Y134.574 E13.11708
G1 X104.204 Y134.082 E13.18314
G1 X103.428 Y133.548 E13.24920
G1 X102.681 Y132.974 E13.31525
G1 X101.966 Y132.363 E13.38131
G1 X101.283 Y131.714 E13.44737
G1 X100.635 Y131.030 E13.51342
G1 X100.024 Y130.314 E13.57948
G1 X99.451 Y129.566 E13.64554
G1 X98.918 Y128.790 E13.71159
G1 X98.427 Y127.987 E13.77765
G1 X97.978 Y127.159 E13.84370
G1 X97.586 Y126.333 E13.90780
G1 X97.213 Y125.434 E13.97609
G1 X96.896 Y124.536 E14.04291
G1 X96.624 Y123.610 E14.11061
G1 X96.413 Y122.721 E14.17471
G1 X96.241 Y121.783 E14.24161
G1 X96.119 Y120.837 E14.30853
G1 X96.068 Y120.164 E14.35581
G1 X97.734 Y119.775 E14.47586
G1 X99.658 Y119.378 E14.61367
G1 X101.592 Y119.031 E14.75149
G1 X103.534 Y118.734 E14.88931
G1 X105.484 Y118.487 E15.02713
G1 X107.438 Y118.292 E15.16494
G1 X109.398 Y118.147 E15.30276
G1 X111.050 Y118.068 E15.41877
G1 X111.050 Y119.576 E15.52458
G1 X110.930 Y119.944 E15.55175
G1 X110.852 Y120.394 E15.58379
G1 X110.840 Y120.851 E15.61584
G1 X110.892 Y121.292 E15.64701
G1 X111.012 Y121.748 E15.68007
G1 X111.196 Y122.172 E15.71248
G1 X111.436 Y122.561 E15.74453
G1 X111.730 Y122.911 E15.77658
G1 X112.067 Y123.211 E15.80822
G1 X112.900 Y123.763 E15.87830
G1 X112.900 Y121.994 E16.00238
G1 X113.169 Y122.193 E16.02588
G1 X113.571 Y122.354 E16.05623
G1 X114.000 Y122.409 E16.08659
G1 X114.429 Y122.354 E16.11694
G1 X114.831 Y122.193 E16.14729
G1 X115.100 Y121.994 E16.17080
G1 X115.100 Y123.703 E16.29067
G1 X115.252 Y124.132 F10800.000
G1 E14.29067 F1800.00000
G92 E0
G1 Z0.800 F10800.000
G1 X114.400 Y123.064 F10800.000
G1 X114.045 Y123.467 F10800.000
G1 X113.955 Y123.467 F10800.000
G1 X113.600 Y123.064 F10800.000
G1 X112.550 Y117.722 F10800.000
G1 Z0.300 F10800.000
G1 E2.05000 F1800.00000
G1 X112.538 Y119.654 E2.18557 F5040.000
G1 X112.383 Y119.945 E2.20865
G1 X112.278 Y120.204 E2.22824
G1 X112.204 Y120.724 E2.26514
G1 X112.271 Y121.179 E2.29741
G1 X112.259 Y121.245 E2.30210
G1 X112.276 Y121.398 E2.31291
G1 X112.472 Y122.261 E2.37495
G1 X115.528 Y122.261 F10800.000
G1 X115.723 Y121.398 E2.43699 F5040.000
G1 X115.741 Y121.245 E2.44780
G1 X115.729 Y121.179 E2.45249
G1 X115.796 Y120.724 E2.48476
G1 X115.721 Y120.204 E2.52166
G1 X115.617 Y119.945 E2.54125
G1 X115.462 Y119.655 E2.56425
G1 X115.455 Y117.722 E2.69988
G1 E0.69988 F1800.00000
G92 E0
G1 Z0.800 F10800.000
G1 X110.350 Y118.802 F10800.000
G1 X109.801 Y119.377 F10800.000
G1 X110.350 Y119.465 F10800.000
G1 X110.273 Y119.419 F10800.000
G1 Z0.300 F10800.000
G1 E2.05000 F1800.00000
G1 X109.756 Y118.902 E2.10210 F5040.000
G1 X109.029 Y118.945 E2.15391
G1 X110.140 Y120.056 E2.26576
G1 X110.068 Y120.753 E2.31568
G1 X108.313 Y118.998 E2.49241
G1 X107.597 Y119.051 E2.54356
G1 X110.132 Y121.586 E2.79892
G1 X110.587 Y122.810 F10800.000
G1 X106.893 Y119.116 E3.17091 F5040.000
G1 X106.194 Y119.186 E3.22095
G1 X121.520 Y134.512 E4.76460
G1 X120.997 Y134.758 E4.80576
G1 X105.495 Y119.256 E6.36715
G1 X104.812 Y119.342 E6.41620
G1 X120.454 Y134.984 E7.99165
G1 X119.895 Y135.194 E8.03415
G1 X104.129 Y119.428 E9.62214
G1 X103.448 Y119.517 E9.67102
G1 X119.324 Y135.393 E11.27004
G1 X118.731 Y135.568 E11.31411
G1 X102.781 Y119.619 E12.92058
G1 X102.114 Y119.721 E12.96865
G1 X118.120 Y135.726 E14.58073
G1 X117.492 Y135.867 E14.62657
G1 X101.451 Y119.827 E16.24221
G1 X100.799 Y119.944 E16.28939
G1 X116.843 Y135.988 E17.90535
G1 X116.166 Y136.080 E17.95401
G1 X100.147 Y120.061 E19.56747
G1 X99.500 Y120.183 E19.61437
G1 X115.466 Y136.149 E21.22252
G1 X114.740 Y136.192 E21.27431
G1 X98.862 Y120.314 E22.87355
G1 X98.225 Y120.446 E22.91991
G1 X113.984 Y136.205 E24.50720
G1 X113.193 Y136.183 E24.56357
G1 X97.592 Y120.583 E26.13488
G1 X96.969 Y120.728 E26.18048
G1 X112.358 Y136.117 E27.73050
G1 X111.474 Y136.003 E27.79397
G1 X97.008 Y121.537 E29.25101
G1 X97.185 Y122.482 E29.31952
G1 X110.530 Y135.828 E30.66370
G1 X109.505 Y135.571 E30.73900
G1 X97.443 Y123.509 E31.95391
G1 X97.803 Y124.638 E32.03832
G1 X108.374 Y135.209 E33.10305
G1 X107.092 Y134.697 F10800.000
G1 X98.317 Y125.922 E33.98693 F5040.000
G1 X99.134 Y127.508 F10800.000
G1 X105.506 Y133.880 E34.62872 F5040.000
G1 X102.593 Y131.736 F10800.000
G1 X101.287 Y130.429 E34.76028 F5040.000
G1 X111.921 Y124.144 F10800.000
G1 X113.159 Y125.381 E34.88490 F5040.000
G1 X113.473 Y125.696 F10800.000
G1 X122.034 Y134.257 E35.74719 F5040.000
G1 X122.533 Y133.986 E35.78758
G1 X114.242 Y125.696 E36.62259
G1 X114.841 Y125.526 E36.66693
G1 X123.015 Y133.699 E37.49018
G1 X123.488 Y133.404 E37.52994
G1 X114.875 Y124.791 E38.39749
G1 X115.338 Y124.484 E38.43701
G1 X123.944 Y133.091 E39.30386
G1 X124.389 Y132.766 E39.34306
G1 X115.800 Y124.178 E40.20811
G1 X116.263 Y123.871 E40.24763
G1 X124.824 Y132.432 E41.10989
G1 X125.241 Y132.080 E41.14876
G1 X116.682 Y123.521 E42.01081
G1 X117.049 Y123.119 E42.04959
G1 X125.650 Y131.720 E42.91592
G1 X126.034 Y131.335 E42.95465
G1 X117.363 Y122.664 E43.82807
G1 X117.620 Y122.152 E43.86886
G1 X126.419 Y130.951 E44.75510
G1 X126.801 Y130.564 E44.79383
G1 X117.811 Y121.574 E45.69935
G1 X117.922 Y120.916 E45.74686
G1 X127.156 Y130.150 E46.67690
G1 X127.503 Y129.728 E46.71581
G1 X117.913 Y120.138 E47.68171
G1 X117.727 Y119.182 E47.75106
G1 X127.836 Y129.292 E48.76933
G1 X128.157 Y128.843 E48.80860
G1 X118.226 Y118.912 E49.80885
G1 X119.050 Y118.968 E49.86772
G1 X128.468 Y128.385 E50.81627
G1 X128.760 Y127.908 E50.85611
G1 X119.881 Y119.029 E51.75041
G1 X120.721 Y119.101 E51.81048
G1 X129.042 Y127.421 E52.64851
G1 X129.312 Y126.922 E52.68892
G1 X121.576 Y119.186 E53.46809
G1 X122.434 Y119.276 E53.52957
G1 X129.562 Y126.403 E54.24747
G1 X129.801 Y125.873 E54.28888
G1 X123.315 Y119.387 E54.94220
G1 X124.195 Y119.498 E55.00540
G1 X130.027 Y125.330 E55.59279
G1 X130.232 Y124.766 E55.63552
G1 X125.102 Y119.636 E56.15225
G1 X126.010 Y119.774 E56.21766
G1 X130.424 Y124.189 E56.66231
G1 X130.599 Y123.594 E56.70646
G1 X126.943 Y119.938 E57.07470
G1 X127.880 Y120.107 E57.14253
G1 X130.751 Y122.978 E57.43171
G1 X130.885 Y122.343 E57.47792
G1 X128.843 Y120.301 E57.68363
G1 X129.812 Y120.501 E57.75411
G1 X131.001 Y121.689 E57.87380
G1 X130.811 Y120.730 E57.94344
G1 X131.083 Y121.002 E57.97084
G1 X121.877 Y126.873 F10800.000
G1 X120.138 Y128.447 F10800.000
G1 X117.595 Y129.904 F10800.000
G1 X114.400 Y125.062 F10800.000
G1 X114.000 Y123.515 F10800.000
G1 X113.955 Y123.467 F10800.000
G1 X114.000 Y123.115 F10800.000
G1 X114.000 Y123.219 F10800.000
G1 X114.000 Y125.455 E58.30330 F5040.000
G1 Z0.500 F10800.000
G1 X114.707 Y124.498 F10800.000
G1 X116.180 Y123.517 E58.40038 F5491.979
G1 X116.550 Y123.187 E58.42760
G1 X116.880 Y122.795 E58.45569
G1 X117.150 Y122.359 E58.48381
G1 X117.357 Y121.885 E58.51219
G1 X117.497 Y121.340 E58.54305
G1 X117.554 Y120.865 E58.56928
G1 X117.539 Y120.352 E58.59741
G1 X117.452 Y119.848 E58.62550
G1 X117.343 Y119.514 E58.64480
G1 X117.343 Y118.480 E58.70151
G1 X118.578 Y118.539 E58.76936
G1 X120.527 Y118.683 E58.87658
G1 X122.472 Y118.878 E58.98380
G1 X124.411 Y119.123 E59.09102
G1 X126.343 Y119.418 E59.19824
G1 X128.267 Y119.763 E59.30546
G1 X130.181 Y120.159 E59.41268
G1 X131.515 Y120.470 E59.48782
G1 X131.372 Y121.713 E59.55646
G1 X131.201 Y122.647 E59.60854
G1 X131.005 Y123.470 E59.65496
G1 X130.730 Y124.414 E59.70886
G1 X130.415 Y125.307 E59.76082
G1 X130.025 Y126.234 E59.81597
G1 X129.662 Y126.998 E59.86242
G1 X129.223 Y127.806 E59.91287
G1 X128.742 Y128.591 E59.96337
G1 X128.263 Y129.289 E60.00978
G1 X127.660 Y130.080 E60.06435
G1 X127.062 Y130.779 E60.11478
G1 X126.429 Y131.446 E60.16526
G1 X125.761 Y132.079 E60.21574
G1 X125.062 Y132.677 E60.26622
G1 X124.331 Y133.237 E60.31670
G1 X123.573 Y133.758 E60.36718
G1 X122.788 Y134.239 E60.41767
G1 X122.045 Y134.643 E60.46409
G1 X121.148 Y135.074 E60.51867
G1 X120.299 Y135.426 E60.56909
G1 X119.431 Y135.733 E60.61957
G1 X118.549 Y135.994 E60.67005
G1 X117.654 Y136.209 E60.72053
G1 X116.749 Y136.377 E60.77101
G1 X115.837 Y136.497 E60.82149
G1 X114.920 Y136.569 E60.87197
G1 X114.000 Y136.593 E60.92245
G1 X113.080 Y136.569 E60.97293
G1 X112.163 Y136.497 E61.02341
