; generated by Slic3r 1.2.9 on 2016-11-10 at 07:19:19

; external perimeters extrusion width = 0.40mm
; perimeters extrusion width = 0.67mm
; infill extrusion width = 0.67mm
; solid infill extrusion width = 0.67mm
; top infill extrusion width = 0.67mm

M107
M190 S50 ; set bed temperature
G28 X0 Y0 Z0 ; home all axes
G1 Z5 F5000 ; lift nozzle
M109 S200 ; set the extruder temp and wait
G28 X0 Y0 Z0 ; Home Z again in case there was filament on nozzle
G29 ; probe the bed
G21 ; set units to millimeters
G90 ; use absolute coordinates
M82 ; use absolute distances for extrusion
G92 E0
G1 Z0.300 F10800.000
G1 E-2.00000 F1800.00000
G92 E0
G1 Z0.800 F10800.000
G1 X52.188 Y36.558 F10800.000
G1 Z0.300 F10800.000
G1 E2.05000 F1800.00000
G1 X53.880 Y34.284 E2.24884 F5040.000
G1 X55.691 Y32.031 E2.45162
G1 X57.546 Y29.888 E2.65046
G1 X59.479 Y27.814 E2.84930
G1 X61.446 Y25.851 E3.04420
G1 X63.565 Y23.885 E3.24698
G1 X65.670 Y22.072 E3.44188
G1 X67.802 Y20.365 E3.63341
G1 X70.159 Y18.611 E3.83955
G1 X72.542 Y16.975 E4.04233
G1 X74.889 Y15.487 E4.23723
G1 X77.337 Y14.057 E4.43607
G1 X79.835 Y12.717 E4.63491
G1 X82.431 Y11.446 E4.83769
G1 X84.969 Y10.316 E5.03259
G1 X87.599 Y9.258 E5.23143
G1 X90.266 Y8.296 E5.43027
G1 X93.020 Y7.417 E5.63305
G1 X95.696 Y6.669 E5.82795
G1 X98.451 Y6.005 E6.02679
G1 X101.285 Y5.433 E6.22957
G1 X104.027 Y4.982 E6.42447
G1 X106.735 Y4.637 E6.61600
G1 X109.662 Y4.369 E6.82214
G1 X112.493 Y4.218 E7.02098
G1 X113.329 Y4.192 E7.07966
G1 X114.174 Y4.177 E7.13898
G1 X116.570 Y4.181 E7.30704
G1 X117.956 Y4.218 E7.40427
G1 X120.731 Y4.365 E7.59922
G1 X123.611 Y4.624 E7.80204
G1 X126.368 Y4.974 E7.99698
G1 X129.166 Y5.433 E8.19586
G1 X132.000 Y6.006 E8.39868
G1 X134.756 Y6.670 E8.59757
G1 X137.433 Y7.418 E8.79251
G1 X140.187 Y8.298 E8.99533
G1 X142.854 Y9.260 E9.19421
G1 X145.484 Y10.318 E9.39310
G1 X148.023 Y11.449 E9.58804
G1 X150.570 Y12.695 E9.78692
G1 X153.119 Y14.061 E9.98974
G1 X155.518 Y15.462 E10.18469
G1 X157.913 Y16.980 E10.38357
G1 X160.297 Y18.616 E10.58639
G1 X162.529 Y20.272 E10.78134
G1 X164.743 Y22.043 E10.98022
G1 X166.892 Y23.893 E11.17910
G1 X168.971 Y25.821 E11.37798
G1 X171.017 Y27.864 E11.58080
G1 X172.911 Y29.898 E11.77574
G1 X174.698 Y31.963 E11.96732
G1 X176.542 Y34.252 E12.17351
G1 X178.269 Y36.571 E12.37633
G1 X179.877 Y38.906 E12.57520
G1 X181.369 Y41.251 E12.77015
G1 X182.832 Y43.745 E12.97297
G1 X184.174 Y46.242 E13.17185
G1 X185.401 Y48.736 E13.36680
G1 X186.559 Y51.324 E13.56568
G1 X187.622 Y53.952 E13.76456
G1 X188.607 Y56.671 E13.96738
G1 X189.457 Y59.317 E14.16233
G1 X190.226 Y62.046 E14.36121
G1 X190.894 Y64.801 E14.56009
G1 X191.472 Y67.634 E14.76291
G1 X191.936 Y70.431 E14.96180
G1 X192.296 Y73.243 E15.16067
G1 X192.550 Y76.011 E15.35562
G1 X192.707 Y78.842 E15.55450
G1 X192.759 Y81.733 E15.75732
G1 X192.709 Y84.510 E15.95219
G1 X192.554 Y87.340 E16.15098
G1 X192.291 Y90.218 E16.35371
G1 X191.928 Y93.029 E16.55251
G1 X191.473 Y95.770 E16.74737
G1 X190.908 Y98.547 E16.94617
G1 X190.242 Y101.301 E17.14497
G1 X189.460 Y104.084 E17.34770
G1 X188.610 Y106.729 E17.54256
G1 X187.647 Y109.394 E17.74136
G1 X186.565 Y112.074 E17.94409
G1 X185.431 Y114.610 E18.13895
G1 X184.181 Y117.154 E18.33775
G1 X182.812 Y119.699 E18.54048
G1 X181.379 Y122.144 E18.73928
G1 X179.888 Y124.488 E18.93414
G1 X178.281 Y126.822 E19.13294
G1 X176.590 Y129.096 E19.33173
G1 X174.781 Y131.351 E19.53447
G1 X172.927 Y133.494 E19.73326
G1 X170.996 Y135.568 E19.93206
G1 X169.030 Y137.531 E20.12692
G1 X166.954 Y139.461 E20.32572
G1 X164.766 Y141.348 E20.52845
G1 X162.597 Y143.085 E20.72331
G1 X160.323 Y144.775 E20.92212
G1 X157.941 Y146.412 E21.12484
G1 X155.595 Y147.901 E21.31971
G1 X153.149 Y149.332 E21.51850
G1 X150.652 Y150.673 E21.71730
G1 X148.057 Y151.945 E21.92003
G1 X145.469 Y153.098 E22.11883
G1 X142.892 Y154.136 E22.31369
G1 X140.226 Y155.099 E22.51249
G1 X137.473 Y155.979 E22.71522
G1 X134.798 Y156.729 E22.91008
G1 X132.044 Y157.394 E23.10888
G1 X129.211 Y157.968 E23.31161
G1 X126.415 Y158.428 E23.51041
G1 X123.659 Y158.780 E23.70527
G1 X120.837 Y159.037 E23.90407
G1 X117.924 Y159.193 E24.10866
G1 X112.524 Y159.193 E24.48744
G1 X109.667 Y159.041 E24.68814
G1 X106.788 Y158.780 E24.89092
G1 X104.032 Y158.428 E25.08582
G1 X101.235 Y157.968 E25.28466
G1 X98.402 Y157.393 E25.48744
G1 X95.700 Y156.742 E25.68234
G1 X92.971 Y155.978 E25.88118
G1 X90.217 Y155.097 E26.08395
G1 X87.604 Y154.154 E26.27886
G1 X85.071 Y153.135 E26.47039
G1 X82.385 Y151.942 E26.67653
G1 X79.839 Y150.695 E26.87538
G1 X77.292 Y149.328 E27.07815
G1 X74.893 Y147.926 E27.27305
G1 X72.500 Y146.407 E27.47189
G1 X70.118 Y144.769 E27.67467
G1 X67.843 Y143.078 E27.87351
G1 X65.674 Y141.341 E28.06841
G1 X63.527 Y139.490 E28.26725
G1 X61.449 Y137.562 E28.46609
G1 X59.405 Y135.519 E28.66887
G1 X57.512 Y133.484 E28.86377
G1 X55.726 Y131.419 E29.05530
G1 X53.884 Y129.129 E29.26144
G1 X52.158 Y126.810 E29.46422
G1 X50.552 Y124.474 E29.66306
G1 X49.061 Y122.130 E29.85796
G1 X47.627 Y119.684 E30.05680
G1 X46.259 Y117.138 E30.25958
G1 X45.033 Y114.644 E30.45448
G1 X43.876 Y112.056 E30.65332
G1 X42.794 Y109.376 E30.85610
G1 X41.849 Y106.763 E31.05100
G1 X41.014 Y104.163 E31.24253
G1 X40.215 Y101.335 E31.44867
G1 X39.547 Y98.580 E31.64752
G1 X38.971 Y95.747 E31.85029
G1 X38.509 Y92.951 E32.04913
G1 X38.155 Y90.195 E32.24403
G1 X37.896 Y87.372 E32.44287
G1 X37.741 Y84.542 E32.64171
G1 X37.689 Y81.651 E32.84449
G1 X37.740 Y78.873 E33.03939
G1 X37.890 Y76.147 E33.23092
G1 X38.154 Y73.220 E33.43707
G1 X38.524 Y70.353 E33.63984
G1 X38.980 Y67.612 E33.83475
G1 X39.546 Y64.834 E34.03359
G1 X40.214 Y62.079 E34.23243
G1 X40.997 Y59.297 E34.43520
G1 X41.848 Y56.652 E34.63011
G1 X42.813 Y53.986 E34.82894
G1 X43.896 Y51.306 E35.03172
G1 X45.031 Y48.770 E35.22663
G1 X46.282 Y46.226 E35.42546
G1 X47.625 Y43.730 E35.62430
G1 X49.088 Y41.237 E35.82708
G1 X50.580 Y38.893 E36.02198
G1 X52.154 Y36.608 E36.21661
G1 E34.21661 F1800.00000
G92 E0
G1 Z0.800 F10800.000
G1 X106.836 Y113.269 F10800.000
G1 Z0.300 F10800.000
G1 E2.05000 F1800.00000
G1 X123.612 Y113.269 E3.22672 F5040.000
G1 X123.500 Y115.110 E3.35606
G1 X123.319 Y116.100 E3.42668
G1 X123.019 Y117.061 E3.49730
G1 X122.606 Y117.979 E3.56792
G1 X122.100 Y118.816 E3.63654
G1 X121.466 Y119.632 E3.70905
G1 X120.753 Y120.345 E3.77977
G1 X119.959 Y120.967 E3.85050
G1 X119.072 Y121.499 E3.92301
G1 X118.180 Y121.900 E3.99162
G1 X117.219 Y122.200 E4.06224
G1 X116.229 Y122.381 E4.13286
G1 X115.224 Y122.442 E4.20348
G1 X114.219 Y122.381 E4.27410
G1 X113.229 Y122.200 E4.34472
G1 X112.268 Y121.900 E4.41534
G1 X111.350 Y121.487 E4.48596
G1 X110.488 Y120.966 E4.55658
G1 X109.696 Y120.345 E4.62720
G1 X108.984 Y119.633 E4.69783
G1 X108.363 Y118.841 E4.76845
G1 X107.842 Y117.979 E4.83907
G1 X107.429 Y117.061 E4.90969
G1 X107.129 Y116.100 E4.98031
G1 X106.948 Y115.110 E5.05093
G1 X106.840 Y113.329 E5.17606
G1 X107.405 Y113.805 F10800.000
G1 X123.043 Y113.805 E6.27296 F1260.000
G1 X122.968 Y115.045 E6.36011
G1 X122.798 Y115.972 E6.42619
G1 X122.518 Y116.871 E6.49226
G1 X122.131 Y117.730 E6.55834
G1 X121.658 Y118.512 E6.62247
G1 X121.063 Y119.277 E6.69044
G1 X120.397 Y119.944 E6.75655
G1 X119.655 Y120.525 E6.82266
G1 X118.824 Y121.023 E6.89063
G1 X117.990 Y121.399 E6.95476
G1 X117.091 Y121.679 E7.02084
G1 X116.164 Y121.849 E7.08691
G1 X115.224 Y121.905 E7.15299
G1 X114.284 Y121.849 E7.21906
G1 X113.357 Y121.679 E7.28514
G1 X112.458 Y121.399 E7.35121
G1 X111.599 Y121.012 E7.41729
G1 X110.793 Y120.525 E7.48336
G1 X110.051 Y119.944 E7.54944
G1 X109.385 Y119.278 E7.61551
G1 X108.804 Y118.536 E7.68159
G1 X108.317 Y117.730 E7.74767
G1 X107.930 Y116.871 E7.81374
G1 X107.650 Y115.972 E7.87982
G1 X107.480 Y115.045 E7.94589
G1 X107.409 Y113.865 E8.02884
G1 X107.397 Y113.405 F10800.000
G1 X106.545 Y93.081 F10800.000
G1 X105.909 Y93.041 E8.07354 F1260.000
G1 X105.303 Y92.844 E8.11824
G1 X104.765 Y92.503 E8.16294
G1 X104.329 Y92.038 E8.20764
G1 X104.022 Y91.480 E8.25234
G1 X103.862 Y90.859 E8.29726
G1 X103.867 Y90.210 E8.34283
G1 X104.022 Y89.608 E8.38642
G1 X104.329 Y89.049 E8.43112
G1 X104.765 Y88.585 E8.47582
G1 X105.303 Y88.243 E8.52052
G1 X105.909 Y88.046 E8.56522
G1 X106.529 Y88.007 E8.60881
G1 X107.168 Y88.125 E8.65438
G1 X107.747 Y88.397 E8.69930
G1 X108.238 Y88.803 E8.74400
G1 X108.613 Y89.319 E8.78870
G1 X108.848 Y89.911 E8.83340
G1 X108.928 Y90.544 E8.87810
G1 X108.848 Y91.176 E8.92280
G1 X108.613 Y91.768 E8.96751
G1 X108.238 Y92.284 E9.01221
G1 X107.747 Y92.690 E9.05691
G1 X107.171 Y92.962 E9.10161
G1 X106.604 Y93.070 E9.14210
G1 X106.511 Y92.542 F10800.000
G1 X106.010 Y92.511 E9.17731 F1260.000
G1 X105.533 Y92.356 E9.21252
G1 X105.109 Y92.087 E9.24773
G1 X104.765 Y91.721 E9.28293
G1 X104.523 Y91.281 E9.31814
G1 X104.398 Y90.794 E9.35343
G1 X104.402 Y90.279 E9.38951
G1 X104.523 Y89.807 E9.42374
G1 X104.765 Y89.367 E9.45895
G1 X105.109 Y89.001 E9.49416
G1 X105.533 Y88.732 E9.52936
G1 X106.010 Y88.577 E9.56457
G1 X106.497 Y88.546 E9.59881
G1 X107.003 Y88.639 E9.63489
G1 X107.458 Y88.853 E9.67017
G1 X107.845 Y89.173 E9.70538
G1 X108.140 Y89.579 E9.74059
G1 X108.325 Y90.046 E9.77580
G1 X108.388 Y90.544 E9.81100
G1 X108.325 Y91.042 E9.84621
G1 X108.140 Y91.508 E9.88142
G1 X107.845 Y91.914 E9.91663
G1 X107.458 Y92.234 E9.95184
G1 X107.004 Y92.448 E9.98704
G1 X106.570 Y92.531 E10.01804
G1 X106.318 Y92.893 F10800.000
G1 E8.01804 F1800.00000
G92 E0
G1 Z0.800 F10800.000
G1 X109.093 Y90.544 F10800.000
G1 X110.290 Y90.106 F10800.000
G1 X109.903 Y89.516 F10800.000
G1 X109.677 Y89.239 F10800.000
G1 X110.147 Y88.524 F10800.000
G1 X110.246 Y88.392 F10800.000
G1 Z0.300 F10800.000
G1 E2.05000 F1800.00000
G1 X109.503 Y87.769 E2.11801 F5040.000
G1 X108.838 Y87.064 E2.18602
G1 X108.259 Y86.286 E2.25402
G1 X107.774 Y85.447 E2.32203
G1 X107.390 Y84.556 E2.39004
G1 X107.112 Y83.628 E2.45804
G1 X106.943 Y82.673 E2.52605
G1 X106.887 Y81.705 E2.59406
G1 X106.943 Y80.737 E2.66206
G1 X107.112 Y79.782 E2.73007
G1 X107.382 Y78.880 E2.79614
G1 X107.773 Y77.964 E2.86597
G1 X108.259 Y77.124 E2.93408
G1 X108.838 Y76.346 E3.00209
G1 X109.503 Y75.641 E3.07009
G1 X110.246 Y75.018 E3.13810
G1 X111.056 Y74.485 E3.20611
G1 X111.922 Y74.050 E3.27411
G1 X112.833 Y73.718 E3.34212
G1 X113.776 Y73.494 E3.41013
G1 X114.739 Y73.382 E3.47814
G1 X115.709 Y73.382 E3.54614
G1 X116.672 Y73.494 E3.61415
G1 X117.615 Y73.718 E3.68216
G1 X118.526 Y74.050 E3.75016
G1 X119.393 Y74.485 E3.81817
G1 X120.203 Y75.018 E3.88618
G1 X120.945 Y75.641 E3.95419
G1 X121.611 Y76.346 E4.02219
G1 X122.190 Y77.124 E4.09020
G1 X122.674 Y77.963 E4.15821
G1 X123.058 Y78.853 E4.22621
G1 X123.336 Y79.782 E4.29422
G1 X123.505 Y80.737 E4.36223
G1 X123.561 Y81.705 E4.43023
G1 X123.505 Y82.673 E4.49824
G1 X123.336 Y83.629 E4.56635
G1 X123.047 Y84.582 E4.63618
G1 X122.674 Y85.447 E4.70225
G1 X122.190 Y86.286 E4.77026
G1 X121.611 Y87.064 E4.83826
G1 X120.945 Y87.769 E4.90627
G1 X120.203 Y88.392 E4.97428
G1 X119.393 Y88.925 E5.04228
G1 X118.526 Y89.360 E5.11029
G1 X117.615 Y89.692 E5.17830
G1 X116.672 Y89.915 E5.24631
G1 X115.709 Y90.028 E5.31431
G1 X114.739 Y90.028 E5.38232
G1 X113.776 Y89.915 E5.45033
G1 X112.833 Y89.692 E5.51833
G1 X111.948 Y89.370 E5.58441
G1 X111.057 Y88.926 E5.65424
G1 X110.296 Y88.425 E5.71813
G1 X110.566 Y87.962 F10800.000
G1 X109.871 Y87.379 E5.78177 F5040.000
G1 X109.249 Y86.719 E5.84540
G1 X108.707 Y85.991 E5.90903
G1 X108.253 Y85.206 E5.97266
G1 X107.894 Y84.373 E6.03629
G1 X107.634 Y83.504 E6.09992
G1 X107.476 Y82.610 E6.16355
G1 X107.424 Y81.705 E6.22718
G1 X107.476 Y80.799 E6.29081
G1 X107.634 Y79.906 E6.35444
G1 X107.886 Y79.062 E6.41620
G1 X108.253 Y78.204 E6.48165
G1 X108.707 Y77.418 E6.54532
G1 X109.249 Y76.691 E6.60895
G1 X109.871 Y76.031 E6.67258
G1 X110.566 Y75.448 E6.73621
G1 X111.324 Y74.949 E6.79984
G1 X112.134 Y74.542 E6.86347
G1 X112.987 Y74.232 E6.92710
G1 X113.870 Y74.023 E6.99073
G1 X114.771 Y73.918 E7.05436
G1 X115.678 Y73.918 E7.11799
G1 X116.579 Y74.023 E7.18162
G1 X117.461 Y74.232 E7.24525
G1 X118.314 Y74.542 E7.30888
G1 X119.124 Y74.949 E7.37251
G1 X119.882 Y75.448 E7.43614
G1 X120.577 Y76.031 E7.49977
G1 X121.200 Y76.691 E7.56341
G1 X121.741 Y77.418 E7.62704
G1 X122.195 Y78.204 E7.69067
G1 X122.554 Y79.037 E7.75430
G1 X122.814 Y79.906 E7.81793
G1 X122.972 Y80.799 E7.88156
G1 X123.025 Y81.705 E7.94519
G1 X122.972 Y82.610 E8.00882
G1 X122.814 Y83.504 E8.07248
G1 X122.544 Y84.397 E8.13794
G1 X122.195 Y85.206 E8.19970
G1 X121.741 Y85.991 E8.26333
G1 X121.200 Y86.719 E8.32696
G1 X120.577 Y87.379 E8.39059
G1 X119.882 Y87.962 E8.45422
G1 X119.124 Y88.460 E8.51785
G1 X118.314 Y88.867 E8.58148
G1 X117.461 Y89.178 E8.64511
G1 X116.579 Y89.387 E8.70874
G1 X115.678 Y89.492 E8.77237
G1 X114.771 Y89.492 E8.83600
G1 X113.870 Y89.387 E8.89963
G1 X112.987 Y89.178 E8.96326
G1 X112.160 Y88.877 E9.02502
G1 X111.324 Y88.461 E9.09048
G1 X110.616 Y87.995 E9.14993
G1 X110.196 Y88.113 F10800.000
G1 E7.14993 F1800.00000
G92 E0
G1 Z0.800 F10800.000
G1 X106.722 Y81.705 F10800.000
G1 X104.309 Y78.157 F10800.000
G1 X104.974 Y77.822 F10800.000
G1 X106.083 Y77.223 F10800.000
G1 X106.465 Y77.011 F10800.000
G1 X106.555 Y75.569 F10800.000
G1 X107.171 Y75.284 F10800.000
G1 Z0.300 F10800.000
G1 E2.05000 F1800.00000
G1 X106.545 Y75.403 E2.09470 F1260.000
G1 X105.909 Y75.363 E2.13940
G1 X105.318 Y75.171 E2.18299
G1 X104.767 Y74.827 E2.22856
G1 X104.329 Y74.360 E2.27348
G1 X104.022 Y73.802 E2.31818
G1 X103.862 Y73.182 E2.36310
G1 X103.867 Y72.532 E2.40867
G1 X104.022 Y71.930 E2.45226
G1 X104.329 Y71.372 E2.49696
G1 X104.765 Y70.907 E2.54166
G1 X105.303 Y70.566 E2.58636
G1 X105.909 Y70.369 E2.63106
G1 X106.529 Y70.330 E2.67465
G1 X107.168 Y70.447 E2.72022
G1 X107.747 Y70.720 E2.76514
G1 X108.238 Y71.126 E2.80984
G1 X108.613 Y71.641 E2.85454
G1 X108.848 Y72.234 E2.89924
G1 X108.928 Y72.866 E2.94394
G1 X108.848 Y73.498 E2.98864
G1 X108.613 Y74.091 E3.03334
G1 X108.238 Y74.606 E3.07804
G1 X107.747 Y75.013 E3.12274
G1 X107.225 Y75.258 E3.16324
G1 X107.004 Y74.770 F10800.000
G1 X106.511 Y74.864 E3.19844 F1260.000
G1 X106.010 Y74.833 E3.23365
G1 X105.546 Y74.682 E3.26789
G1 X105.110 Y74.410 E3.30396
G1 X104.765 Y74.043 E3.33925
G1 X104.523 Y73.603 E3.37446
G1 X104.398 Y73.116 E3.40974
G1 X104.402 Y72.602 E3.44582
G1 X104.523 Y72.129 E3.48006
G1 X104.765 Y71.689 E3.51526
G1 X105.109 Y71.323 E3.55047
G1 X105.533 Y71.054 E3.58568
G1 X106.010 Y70.899 E3.62089
G1 X106.497 Y70.868 E3.65512
G1 X107.003 Y70.961 E3.69120
G1 X107.458 Y71.175 E3.72649
G1 X107.845 Y71.495 E3.76169
G1 X108.140 Y71.901 E3.79690
G1 X108.325 Y72.368 E3.83211
G1 X108.388 Y72.866 E3.86732
G1 X108.325 Y73.364 E3.90253
G1 X108.140 Y73.831 E3.93774
G1 X107.845 Y74.237 E3.97294
G1 X107.458 Y74.557 E4.00815
G1 X107.058 Y74.745 E4.03915
G1 X106.905 Y75.158 F10800.000
G1 X121.541 Y73.185 F10800.000
G1 X121.541 Y72.547 E4.08385 F1260.000
G1 X121.699 Y71.930 E4.12855
G1 X122.006 Y71.372 E4.17325
G1 X122.442 Y70.907 E4.21795
G1 X122.980 Y70.566 E4.26266
G1 X123.587 Y70.369 E4.30736
G1 X124.207 Y70.330 E4.35094
G1 X124.846 Y70.447 E4.39652
G1 X125.425 Y70.720 E4.44143
G1 X125.916 Y71.126 E4.48613
G1 X126.291 Y71.641 E4.53083
G1 X126.525 Y72.234 E4.57554
G1 X126.605 Y72.866 E4.62024
G1 X126.525 Y73.498 E4.66494
G1 X126.291 Y74.091 E4.70964
G1 X125.916 Y74.606 E4.75434
G1 X125.425 Y75.013 E4.79904
G1 X124.849 Y75.284 E4.84374
G1 X124.223 Y75.403 E4.88844
G1 X123.587 Y75.363 E4.93314
G1 X122.996 Y75.171 E4.97673
G1 X122.445 Y74.827 E5.02230
G1 X122.006 Y74.360 E5.06722
G1 X121.699 Y73.802 E5.11192
G1 X121.556 Y73.243 E5.15241
G1 X122.076 Y73.117 F10800.000
G1 X122.076 Y72.615 E5.18762 F1260.000
G1 X122.201 Y72.129 E5.22283
G1 X122.443 Y71.689 E5.25804
G1 X122.787 Y71.323 E5.29325
G1 X123.210 Y71.054 E5.32845
G1 X123.688 Y70.899 E5.36366
G1 X124.175 Y70.868 E5.39790
G1 X124.681 Y70.961 E5.43397
G1 X125.136 Y71.175 E5.46926
G1 X125.523 Y71.495 E5.50447
G1 X125.818 Y71.901 E5.53968
G1 X126.002 Y72.368 E5.57489
G1 X126.065 Y72.866 E5.61009
G1 X126.002 Y73.364 E5.64530
G1 X125.818 Y73.831 E5.68051
G1 X125.523 Y74.237 E5.71572
G1 X125.136 Y74.557 E5.75093
G1 X124.682 Y74.770 E5.78613
G1 X124.189 Y74.864 E5.82134
G1 X123.688 Y74.833 E5.85655
